Sweet-Rainbow/icons/poedit.svg

<?xml version="1.0" encoding="UTF-8" standalone="no"?>
<!-- Generator: Gravit.io -->

<svg
   xmlns:dc="http://purl.org/dc/elements/1.1/"
   xmlns:cc="http://creativecommons.org/ns#"
   xmlns:rdf="http://www.w3.org/1999/02/22-rdf-syntax-ns#"
   xmlns:svg="http://www.w3.org/2000/svg"
   xmlns="http://www.w3.org/2000/svg"
   xmlns:sodipodi="http://sodipodi.sourceforge.net/DTD/sodipodi-0.dtd"
   xmlns:inkscape="http://www.inkscape.org/namespaces/inkscape"
   style="isolation:isolate"
   viewBox="0 0 36 36"
   width="48"
   height="48"
   version="1.1"
   id="svg9"
   sodipodi:docname="poedit.svg"
   inkscape:version="0.92.4 (5da689c313, 2019-01-14)">
  <metadata
     id="metadata15">
    <rdf:RDF>
      <cc:Work
         rdf:about="">
        <dc:format>image/svg+xml</dc:format>
        <dc:type
           rdf:resource="http://purl.org/dc/dcmitype/StillImage" />
        <dc:title></dc:title>
      </cc:Work>
    </rdf:RDF>
  </metadata>
  <defs
     id="defs13" />
  <sodipodi:namedview
     pagecolor="#ffffff"
     bordercolor="#666666"
     borderopacity="1"
     objecttolerance="10"
     gridtolerance="10"
     guidetolerance="10"
     inkscape:pageopacity="0"
     inkscape:pageshadow="2"
     inkscape:window-width="640"
     inkscape:window-height="480"
     id="namedview11"
     showgrid="false"
     inkscape:zoom="29.365243"
     inkscape:cx="25.325443"
     inkscape:cy="32"
     inkscape:current-layer="svg9"
     units="px" />
  <linearGradient
     id="_lgradient_23"
     x1="0.21875"
     y1="0.17506042"
     x2="1.0989902"
     y2="1.1181589"
     gradientTransform="matrix(44,0,0,44,2,2)"
     gradientUnits="userSpaceOnUse">
    <stop
       offset="0%"
       stop-opacity="1"
       style="stop-color:rgb(252,203,144)"
       id="stop2" />
    <stop
       offset="83.91304347826087%"
       stop-opacity="1"
       style="stop-color:rgb(213,126,235)"
       id="stop4" />
  </linearGradient>
  <g
     id="g826"
     transform="matrix(0.81818182,0,0,0.81818182,-1.6363637,-1.6363637)">
    <path
       id="path7"
       d="M 35,2.07 C 34.834,2.023 34.658,2 34.476,2 V 2 H 7.238 C 4.347,2 2,4.347 2,7.238 v 19.905 0 c 0,1.156 0.939,2.095 2.095,2.095 v 0 c 1.157,0 2.095,-0.939 2.095,-2.095 v 0 0 0 -17.81 C 6.19,7.599 7.599,6.19 9.333,6.19 h 25.143 v 0 c 0.182,0 0.358,-0.023 0.524,-0.07 0.166,0.047 0.342,0.07 0.524,0.07 v 0 h 3.143 c 1.734,0 3.143,1.409 3.143,3.143 v 3.143 0 c 0,1.157 0.938,2.095 2.095,2.095 v 0 c 1.156,0 2.095,-0.938 2.095,-2.095 v 0 -5.238 C 46,4.347 43.653,2 40.762,2 H 35.524 V 2 C 35.342,2 35.166,2.023 35,2.07 Z M 12.476,41.81 v 0 c 1.157,0 2.095,0.938 2.095,2.095 v 0 c 0,1.156 -0.938,2.095 -2.095,2.095 v 0 H 7.238 C 4.347,46 2,43.653 2,40.762 v -5.238 0 c 0,-1.157 0.939,-2.095 2.095,-2.095 v 0 c 1.157,0 2.095,0.938 2.095,2.095 v 0 3.143 c 0,1.734 1.409,3.143 3.143,3.143 z M 41.81,21.905 v 0 c 0,-1.157 0.938,-2.095 2.095,-2.095 v 0 c 1.156,0 2.095,0.938 2.095,2.095 v 0 18.857 C 46,43.653 43.653,46 40.762,46 H 21.905 v 0 C 20.748,46 19.81,45.061 19.81,43.905 v 0 c 0,-1.157 0.938,-2.095 2.095,-2.095 v 0 h 16.762 c 1.734,0 3.143,-1.409 3.143,-3.143 z M 16.029,11 C 14.974,11.648 11.748,12.479 10,12.986 l 0.055,0.155 c 0.831,-0.083 2.019,-0.201 2.853,-0.342 v 1.226 h -2.896 l 0.07,1.036 h 2.424 c -0.417,1.712 -1.38,3.432 -2.477,4.753 l 0.166,0.155 c 1.029,-0.745 2.059,-1.407 2.711,-2.389 V 22 h 0.266 c 0.707,0 1.866,-0.273 1.879,-0.357 v -4.485 c 0.528,0.476 0.629,1.032 0.726,1.623 0.18,0.152 0.375,0.223 0.555,0.223 0.374,0 0.693,-0.271 0.693,-0.649 0,-0.51 -0.184,-0.983 -1.974,-1.384 v -1.91 h 2.344 c 0.375,0 0.555,-0.86 0.652,-1.012 L 16.029,13 15.58,14.023 H 15.051 V 12.516 C 15.676,12.373 16.26,12.232 16.732,12.09 17.007,12.097 18.029,12 18.029,12 Z m 4.944,4.035 h 2.021 v 5.004 H 20.973 Z M 34,30 c 1.105,0 2,0.895 2,2 0,1.105 -0.895,2 -2,2 -1.105,0 -2,-0.895 -2,-2 0,-1.105 0.895,-2 2,-2 z M 19,13.031 V 22 c 1.305,0 1.973,-0.471 1.973,-0.496 v -0.465 h 2.021 v 0.736 c 1.099,0 1.986,-0.319 1.986,-0.341 v -7.27 c 0.292,-0.058 0.515,-0.152 0.598,-0.26 L 23.973,13.039 22.857,14 H 21.043 Z M 26,28 v 3 2 3 h 2 v -3 h 2.133 c 0.455,1.764 2.045,2.997 3.867,3 2.209,0 4,-1.791 4,-4 0,-2.209 -1.791,-4 -4,-4 -1.823,0.002 -3.414,1.235 -3.869,3 H 28 v -3 z"
       inkscape:connector-curvature="0"
       style="fill:url(#_lgradient_23);fill-rule:evenodd" />
  </g>
</svg>

<?xml version="1.0" encoding="UTF-8" standalone="no"?><!-- Generator: Gravit.io --><svg xmlns="http://www.w3.org/2000/svg" xmlns:xlink="http://www.w3.org/1999/xlink" style="isolation:isolate" viewBox="0 0 48 48" width="48pt" height="48pt"><linearGradient id="_lgradient_23" x1="0.21874999649848828" y1="0.17506041551987891" x2="1.098990208503709" y2="1.1181589937900303" gradientTransform="matrix(44,0,0,44,2,2)" gradientUnits="userSpaceOnUse"><stop offset="0%" stop-opacity="1" style="stop-color:rgb(252,203,144)"/><stop offset="83.91304347826087%" stop-opacity="1" style="stop-color:rgb(213,126,235)"/></linearGradient><path d=" M 35 2.07 C 34.834 2.023 34.658 2 34.476 2 L 34.476 2 L 7.238 2 C 4.347 2 2 4.347 2 7.238 L 2 27.143 L 2 27.143 C 2 28.299 2.939 29.238 4.095 29.238 L 4.095 29.238 C 5.252 29.238 6.19 28.299 6.19 27.143 L 6.19 27.143 L 6.19 27.143 L 6.19 27.143 L 6.19 9.333 C 6.19 7.599 7.599 6.19 9.333 6.19 L 34.476 6.19 L 34.476 6.19 C 34.658 6.19 34.834 6.167 35 6.12 C 35.166 6.167 35.342 6.19 35.524 6.19 L 35.524 6.19 L 38.667 6.19 C 40.401 6.19 41.81 7.599 41.81 9.333 L 41.81 12.476 L 41.81 12.476 C 41.81 13.633 42.748 14.571 43.905 14.571 L 43.905 14.571 C 45.061 14.571 46 13.633 46 12.476 L 46 12.476 L 46 7.238 C 46 4.347 43.653 2 40.762 2 L 35.524 2 L 35.524 2 C 35.342 2 35.166 2.023 35 2.07 L 35 2.07 Z  M 12.476 41.81 L 12.476 41.81 C 13.633 41.81 14.571 42.748 14.571 43.905 L 14.571 43.905 C 14.571 45.061 13.633 46 12.476 46 L 12.476 46 L 7.238 46 C 4.347 46 2 43.653 2 40.762 L 2 35.524 L 2 35.524 C 2 34.367 2.939 33.429 4.095 33.429 L 4.095 33.429 C 5.252 33.429 6.19 34.367 6.19 35.524 L 6.19 35.524 L 6.19 38.667 C 6.19 40.401 7.599 41.81 9.333 41.81 L 12.476 41.81 L 12.476 41.81 L 12.476 41.81 L 12.476 41.81 Z  M 41.81 21.905 L 41.81 21.905 C 41.81 20.748 42.748 19.81 43.905 19.81 L 43.905 19.81 C 45.061 19.81 46 20.748 46 21.905 L 46 21.905 L 46 40.762 C 46 43.653 43.653 46 40.762 46 L 21.905 46 L 21.905 46 C 20.748 46 19.81 45.061 19.81 43.905 L 19.81 43.905 C 19.81 42.748 20.748 41.81 21.905 41.81 L 21.905 41.81 L 38.667 41.81 C 40.401 41.81 41.81 40.401 41.81 38.667 L 41.81 21.905 L 41.81 21.905 L 41.81 21.905 Z  M 16.029 11 C 14.974 11.648 11.748 12.479 10 12.986 L 10.055 13.141 C 10.886 13.058 12.074 12.94 12.908 12.799 L 12.908 14.025 L 10.012 14.025 L 10.082 15.061 L 12.506 15.061 C 12.089 16.773 11.126 18.493 10.029 19.814 L 10.195 19.969 C 11.224 19.224 12.254 18.562 12.906 17.58 L 12.906 22 L 13.172 22 C 13.879 22 15.038 21.727 15.051 21.643 L 15.051 17.158 C 15.579 17.634 15.68 18.19 15.777 18.781 C 15.957 18.933 16.152 19.004 16.332 19.004 C 16.706 19.004 17.025 18.733 17.025 18.355 C 17.025 17.845 16.841 17.372 15.051 16.971 L 15.051 15.061 L 17.395 15.061 C 17.77 15.061 17.95 14.201 18.047 14.049 L 16.029 13 L 15.58 14.023 L 15.051 14.023 L 15.051 12.516 C 15.676 12.373 16.26 12.232 16.732 12.09 C 17.007 12.097 18.029 12 18.029 12 L 16.029 11 L 16.029 11 Z  M 20.973 15.035 L 22.994 15.035 L 22.994 20.039 L 20.973 20.039 L 20.973 15.035 L 20.973 15.035 Z  M 34 30 C 35.105 30 36 30.895 36 32 C 36 33.105 35.105 34 34 34 C 32.895 34 32 33.105 32 32 C 32 30.895 32.895 30 34 30 L 34 30 Z  M 19 13.031 L 19 22 C 20.305 22 20.973 21.529 20.973 21.504 L 20.973 21.039 L 22.994 21.039 L 22.994 21.775 C 24.093 21.775 24.98 21.456 24.98 21.434 L 24.98 14.164 C 25.272 14.106 25.495 14.012 25.578 13.904 L 23.973 13.039 L 22.857 14 L 21.043 14 L 19 13.031 L 19 13.031 Z  M 26 28 L 26 31 L 26 33 L 26 36 L 28 36 L 28 33 L 30.133 33 C 30.588 34.764 32.178 35.997 34 36 C 36.209 36 38 34.209 38 32 C 38 29.791 36.209 28 34 28 C 32.177 28.002 30.586 29.235 30.131 31 L 28 31 L 28 28 L 26 28 L 26 28 Z " fill-rule="evenodd" fill="url(#_lgradient_23)"/></svg>
